svgs/sharp-solid/bell-exclamation.svg

<svg xmlns="http://www.w3.org/2000/svg" viewBox="0 0 448 512"><!--! Font Awesome Pro 6.6.0 by @fontawesome - https://fontawesome.com License - https://fontawesome.com/license (Commercial License) Copyright 2024 Fonticons, Inc. --><path d="M256 0L192 0l0 51.2C119 66 64 130.6 64 208l0 88L0 368l0 48 448 0 0-48-64-72 0-88c0-77.4-55-142-128-156.8L256 0zm32 448l-64 0-64 0c0 17 6.7 33.3 18.7 45.3s28.3 18.7 45.3 18.7s33.3-6.7 45.3-18.7s18.7-28.3 18.7-45.3zM248 112l0 24 0 96 0 24-48 0 0-24 0-96 0-24 48 0zm0 184l0 48-48 0 0-48 48 0z"/></svg>

<svg xmlns="http://www.w3.org/2000/svg" viewBox="0 0 448 512"><!--! Font Awesome Pro 6.4.0 by @fontawesome - https://fontawesome.com License - https://fontawesome.com/license (Commercial License) Copyright 2023 Fonticons, Inc. --><path d="M256 0H192V51.2C119 66 64 130.6 64 208v88L0 368v48H448V368l-64-72V208c0-77.4-55-142-128-156.8V0zm32 448H224 160c0 17 6.7 33.3 18.7 45.3s28.3 18.7 45.3 18.7s33.3-6.7 45.3-18.7s18.7-28.3 18.7-45.3zM248 112v24 96 24H200V232 136 112h48zm0 184v48H200V296h48z"/></svg>
